resources/icons/16px/calendar.svg

<svg xmlns="http://www.w3.org/2000/svg" viewBox="0 0 16 16">
  <path d="M11 3c.6 0 1-.5 1-1V1c0-.6-.4-1-1-1s-1 .4-1 1v1c0 .5.4 1 1 1m3-2h-1v1c0 1.1-.9 2-2 2s-2-.9-2-2V1H6v1c0 1.1-.9 2-2 2s-2-.9-2-2V1H1c-.6 0-1 .5-1 1v12c0 .6.4 1 1 1h13c.6 0 1-.4 1-1V2c0-.6-.5-1-1-1M5 13H2v-3h3zm0-4H2V6h3zm4 4H6v-3h3zm0-4H6V6h3zm4 4h-3v-3h3zm0-4h-3V6h3zM4 3c.6 0 1-.5 1-1V1c0-.6-.4-1-1-1S3 .4 3 1v1c0 .5.4 1 1 1"/>
</svg>

<?xml version="1.0" encoding="UTF-8"?>
<svg width="16px" height="16px" viewBox="0 0 16 16" version="1.1" xmlns="http://www.w3.org/2000/svg" xmlns:xlink="http://www.w3.org/1999/xlink">
    <!-- Generator: Sketch 49.1 (51147) - http://www.bohemiancoding.com/sketch -->
    <title>Artboard 2</title>
    <desc>Created with Sketch.</desc>
    <defs></defs>
    <g id="Artboard-2" stroke="none" stroke-width="1" fill="none" fill-rule="evenodd">
        <path d="M11,3 C11.6,3 12,2.5 12,2 L12,1 C12,0.4 11.6,0 11,0 C10.4,0 10,0.4 10,1 L10,2 C10,2.5 10.4,3 11,3 Z M14,1 L13,1 L13,2 C13,3.1 12.1,4 11,4 C9.9,4 9,3.1 9,2 L9,1 L6,1 L6,2 C6,3.1 5.1,4 4,4 C2.9,4 2,3.1 2,2 L2,1 L1,1 C0.4,1 0,1.5 0,2 L0,14 C0,14.6 0.4,15 1,15 L14,15 C14.6,15 15,14.6 15,14 L15,2 C15,1.4 14.5,1 14,1 Z M5,13 L2,13 L2,10 L5,10 L5,13 Z M5,9 L2,9 L2,6 L5,6 L5,9 Z M9,13 L6,13 L6,10 L9,10 L9,13 Z M9,9 L6,9 L6,6 L9,6 L9,9 Z M13,13 L10,13 L10,10 L13,10 L13,13 Z M13,9 L10,9 L10,6 L13,6 L13,9 Z M4,3 C4.6,3 5,2.5 5,2 L5,1 C5,0.4 4.6,0 4,0 C3.4,0 3,0.4 3,1 L3,2 C3,2.5 3.4,3 4,3 Z" id="Shape" fill="#000000" fill-rule="nonzero"></path>
    </g>
</svg>
